2.WithTST/chrome/icons/home.svg

<svg xmlns="http://www.w3.org/2000/svg" width="16" height="16" viewBox="0 0 16 16">
   <path
   style="fill:context-fill;fill-opacity:context-fill-opacity"
   d="m 6.9975,0.38431277 c 0.57017,-0.51241713 1.4348,-0.51241713 2.005,0 l 5.5,4.94295923 C 14.8191,5.6118437 15,6.0175902 15,6.4433824 v 7.0561856 c 0,0.828638 -0.6716,1.500431 -1.5,1.500431 h -2 c -0.8284,0 -1.5,-0.671793 -1.5,-1.500431 V 9.5002154 C 10,9.2239361 9.7761,9.0000718 9.5,9.0000718 h -3 c -0.27614,0 -0.5,0.2238643 -0.5,0.5001436 v 3.9993526 c 0,0.828638 -0.67157,1.500431 -1.5,1.500431 h -2 c -0.82843,0 -1.5,-0.671793 -1.5,-1.500431 V 6.4433824 C 1,6.0175902 1.18086,5.6118437 1.4975,5.327272 Z M 8.3342,1.1283864 c -0.1901,-0.17079904 -0.47831,-0.17079904 -0.66837,0 l -5.5,4.9429592 C 2.06029,6.1662028 2,6.3014517 2,6.4433824 v 7.0561856 c 0,0.27618 0.22386,0.500144 0.5,0.500144 h 2 c 0.27614,0 0.5,-0.223964 0.5,-0.500144 V 9.5002154 C 5,8.6714774 5.67157,7.9997846 6.5,7.9997846 h 3 c 0.8284,0 1.5,0.6716928 1.5,1.5004308 v 3.9993526 c 0,0.27618 0.2239,0.500144 0.5,0.500144 h 2 c 0.2761,0 0.5,-0.223964 0.5,-0.500144 V 6.4433824 C 14,6.3014517 13.9397,6.1662028 13.8342,6.0713456 Z" />
</svg>

<svg xmlns="http://www.w3.org/2000/svg" width="16" height="16">
  <path style="fill:context-fill;fill-opacity:context-fill-opacity" d="M6.997.384a1.5 1.5 0 0 1 2.005 0l5.5 4.943A1.5 1.5 0 0 1 15 6.443V13.5a1.5 1.5 0 0 1-1.5 1.5h-2a1.5 1.5 0 0 1-1.5-1.5v-4a.5.5 0 0 0-.5-.5h-3a.5.5 0 0 0-.5.5v4A1.5 1.5 0 0 1 4.5 15h-2A1.5 1.5 0 0 1 1 13.5V6.443c0-.425.18-.831.498-1.116zm1.337.744a.5.5 0 0 0-.668 0l-5.5 4.943A.5.5 0 0 0 2 6.443V13.5a.5.5 0 0 0 .5.5h2a.5.5 0 0 0 .5-.5v-4A1.5 1.5 0 0 1 6.5 8h3A1.5 1.5 0 0 1 11 9.5v4a.5.5 0 0 0 .5.5h2a.5.5 0 0 0 .5-.5V6.443a.5.5 0 0 0-.166-.372z"/>
</svg>
